packages/netlify-cms-ui-default/src/Icon/images/page.svg

<svg height="24" viewBox="0 0 24 24" width="24" xmlns="http://www.w3.org/2000/svg"><path d="m13.365625 3 5.625 5.49263495.009375 10.67648675c0 1.0069831-.84375 1.8308783-1.875 1.8308783h-11.259375c-1.03125 0-1.865625-.8238952-1.865625-1.8308783v-14.33824338c0-1.00698308.834375-1.83087832 1.865625-1.83087832zm-6.425625 9.1099997c-.51914767 0-.94.4208523-.94.94 0 .5191476.42085233.94.94.94h9.12c.5191477 0 .94-.4208524.94-.94 0-.5191477-.4208523-.94-.94-.94zm0 3.8900003c-.51914767 0-.94.4208523-.94.94s.42085233.94.94.94h9.12c.5191477 0 .94-.4208523.94-.94s-.4208523-.94-.94-.94zm5.072598-6h5.1392974l-5.1392974-5.05314891z"/></svg>

<svg xmlns="http://www.w3.org/2000/svg" xmlns:xlink="http://www.w3.org/1999/xlink" width="24" height="24" viewBox="0 0 24 24"><path id="icon-page@2x-a" d="M13.365625,3 L18.990625,8.49263495 L19,19.1691217 C19,20.1761048 18.15625,21 17.125,21 L5.865625,21 C4.834375,21 4,20.1761048 4,19.1691217 L4,4.83087832 C4,3.82389524 4.834375,3 5.865625,3 L13.365625,3 Z M6.94,12.1099997 L6.94,12.1099997 C6.42085233,12.1099997 6,12.530852 6,13.0499997 C6,13.5691473 6.42085233,13.9899997 6.94,13.9899997 L16.06,13.9899997 C16.5791477,13.9899997 17,13.5691473 17,13.0499997 C17,12.530852 16.5791477,12.1099997 16.06,12.1099997 L6.94,12.1099997 Z M6.94,16 L6.94,16 C6.42085233,16 6,16.4208523 6,16.94 C6,17.4591477 6.42085233,17.88 6.94,17.88 L16.06,17.88 C16.5791477,17.88 17,17.4591477 17,16.94 C17,16.4208523 16.5791477,16 16.06,16 L6.94,16 Z M12.012598,10 L17.1518954,10 L12.012598,4.94685109 L12.012598,10 Z"/></svg>
